IMB-X-Files/The-Ambassadors-Assets/661113eecc83b6b5876d1fbf_ch-icon.svg

<svg fill="none" height="64" viewBox="0 0 232 64" width="232" xmlns="http://www.w3.org/2000/svg"><path clip-rule="evenodd" d="m16.4271 52.2644c3.1608 2.2384 6.5069 4.2267 10.015 5.93-11.4517 5.2802-21.88516 5.7923-25.28421 5.8056l-.344523-.0003c-.52615-.0032-.8095462-.0179-.813367-.0179 6.0901-3.0117 11.6291-6.9837 16.4271-11.7174zm12.5205-17.3716c1.1254.785 2.2832 1.5257 3.4758 2.2173-4.2515 8.1659-8.9175 13.0936-8.9175 13.0936 4.4576-3.701 8.0283-7.9627 10.8256-12.0445 4.0083 2.0934 8.3316 3.6565 12.8818 4.5888-4.5155 5.0725-9.8183 9.4136-15.7162 12.8225-4.2283-1.785-8.2343-4-11.9671-6.5888 3.7235-4.2313 6.9006-8.965 9.4176-14.0889zm48.377-4.9589c3.1797 0 5.579 1.2586 7.386 2.8653l-2.6408 4.3105c-1.0777-.8022-2.3459-1.7657-4.4478-1.7657-2.534 0-4.0414 1.8464-4.0437 3.9601 0 2.1138 1.5097 3.9625 4.0437 3.9625 2.1019 0 3.3701-.9635 4.4478-1.768l2.6408 4.3105c-1.807 1.6067-4.2063 2.8652-7.386 2.8652-5.6323 0-9.8641-4.0408-9.8641-9.3702 0-5.327 4.2318-9.3702 9.8641-9.3702zm15.3867 0v6.6131h6.5564v-6.6131h6.0103v18.7404h-6.0103v-6.8906h-6.5564v6.8906h-6.0103v-18.7404zm21.8557 0v18.7404h-5.972v-18.7404zm9.353 0v13.5037h8.56v5.2367h-14.596v-18.7404zm16.522 0v18.7404h-5.971v-18.7404zm18.999 0c3.718 0 6.876 2.2613 6.876 7.1374 0 4.4111-3.158 7.0283-6.876 7.0283h-3.826v4.5747h-5.885v-18.7404zm14.837 0v18.7404h-5.971v-18.7404zm13.03 0c3.718 0 6.874 2.2613 6.874 7.1374 0 4.4111-3.156 7.0283-6.874 7.0283h-3.827v4.5747h-5.885v-18.7404zm24.125 0v5.2368h-9.558v1.6539h7.576v4.8215h-7.576v1.7915h9.558v5.2367h-15.26v-18.7404zm13.127 0c3.695 0 6.46 2.1522 6.46 6.3948 0 2.3536-1.278 4.2401-3.273 5.206l-.184.0853 4.437 5.6758v1.3785h-5.848l-4.597-6.4469h-.957v6.4469h-5.848v-18.7404zm-189.9275-12.7305c8.8573.035 17.0963 2.7103 23.9876 7.2898-2.1397 5.2103-4.9416 10.0702-8.2992 14.4791-4.8559-.7407-9.4594-2.2547-13.6831-4.4136 4.194-6.9922 6.0013-12.6938 6.0475-12.8407l.001-.0029-4.4021-1.0537c-.9054 4.6262-2.3596 8.8645-4.0106 12.6005-1.2204-.7196-2.406-1.493-3.5499-2.3177 1.7854-4.3599 3.1099-8.9581 3.9088-13.7408zm123.8725 17.9673h-2.888v3.6921h2.888c1.017 0 1.738-.7996 1.741-1.846 0-1.0204-.724-1.8461-1.741-1.8461zm27.867 0h-2.891v3.6921h2.891c1.017 0 1.738-.7996 1.738-1.846 0-1.0204-.721-1.8461-1.738-1.8461zm37.203 0h-2.977v2.8664h2.977c1.011 0 1.437-.7451 1.434-1.4332 0-.662-.423-1.4332-1.434-1.4332zm-170.5564-35.1707s3.5637 7.32716-.4933 15.0422c0 0 2.7885 1.8374 3.3392 3.0238l.0417.1-.4215 1.3061c-4.0233-2.0488-8.3805-3.5268-12.9676-4.3312l-.5996-.1011.345-1.3434s2.9501-.4954 5.1638 0c0 0 3.1707-2.4188 3.3142-10.41559l.0041-.32284z" fill="#fff" fill-rule="evenodd"/></svg>

<svg width="232" height="64" viewBox="0 0 232 64" fill="none" xmlns="http://www.w3.org/2000/svg">
    <path fill-rule="evenodd" clip-rule="evenodd"
        d="M16.4271 52.2644C19.5879 54.5028 22.934 56.4911 26.4421 58.1944C14.9904 63.4746 4.55694 63.9867 1.15789 64L0.813367 63.9997C0.287217 63.9965 0.0038208 63.9818 0 63.9818C6.0901 60.9701 11.6291 56.9981 16.4271 52.2644ZM28.9476 34.8928C30.073 35.6778 31.2308 36.4185 32.4234 37.1101C28.1719 45.276 23.5059 50.2037 23.5059 50.2037C27.9635 46.5027 31.5342 42.241 34.3315 38.1592C38.3398 40.2526 42.6631 41.8157 47.2133 42.748C42.6978 47.8205 37.395 52.1616 31.4971 55.5705C27.2688 53.7855 23.2628 51.5705 19.53 48.9817C23.2535 44.7504 26.4306 40.0167 28.9476 34.8928ZM77.3246 29.9339C80.5043 29.9339 82.9036 31.1925 84.7106 32.7992L82.0698 37.1097C80.9921 36.3075 79.7239 35.344 77.622 35.344C75.088 35.344 73.5806 37.1904 73.5783 39.3041C73.5783 41.4179 75.088 43.2666 77.622 43.2666C79.7239 43.2666 80.9921 42.3031 82.0698 41.4986L84.7106 45.8091C82.9036 47.4158 80.5043 48.6743 77.3246 48.6743C71.6923 48.6743 67.4605 44.6335 67.4605 39.3041C67.4605 33.9771 71.6923 29.9339 77.3246 29.9339ZM92.7113 29.9339V36.547H99.2677V29.9339H105.278V48.6743H99.2677V41.7837H92.7113V48.6743H86.701V29.9339H92.7113ZM114.567 29.9339V48.6743H108.595V29.9339H114.567ZM123.92 29.9339V43.4376H132.48V48.6743H117.884V29.9339H123.92ZM140.442 29.9339V48.6743H134.471V29.9339H140.442ZM159.441 29.9339C163.159 29.9339 166.317 32.1952 166.317 37.0713C166.317 41.4824 163.159 44.0996 159.441 44.0996H155.615V48.6743H149.73V29.9339H159.441ZM174.278 29.9339V48.6743H168.307V29.9339H174.278ZM187.308 29.9339C191.026 29.9339 194.182 32.1952 194.182 37.0713C194.182 41.4824 191.026 44.0996 187.308 44.0996H183.481V48.6743H177.596V29.9339H187.308ZM211.433 29.9339V35.1707H201.875V36.8246H209.451V41.6461H201.875V43.4376H211.433V48.6743H196.173V29.9339H211.433ZM224.56 29.9339C228.255 29.9339 231.02 32.0861 231.02 36.3287C231.02 38.6823 229.742 40.5688 227.747 41.5347L227.563 41.62L232 47.2958V48.6743H226.152L221.555 42.2274H220.598V48.6743H214.75V29.9339H224.56ZM34.6325 17.2034C43.4898 17.2384 51.7288 19.9137 58.6201 24.4932C56.4804 29.7035 53.6785 34.5634 50.3209 38.9723C45.465 38.2316 40.8615 36.7176 36.6378 34.5587C40.8318 27.5665 42.6391 21.8649 42.6853 21.718L42.6863 21.7151L38.2842 20.6614C37.3788 25.2876 35.9246 29.5259 34.2736 33.2619C33.0532 32.5423 31.8676 31.7689 30.7237 30.9442C32.5091 26.5843 33.8336 21.9861 34.6325 17.2034ZM158.505 35.1707H155.617V38.8628H158.505C159.522 38.8628 160.243 38.0632 160.246 37.0168C160.246 35.9964 159.522 35.1707 158.505 35.1707ZM186.372 35.1707H183.481V38.8628H186.372C187.389 38.8628 188.11 38.0632 188.11 37.0168C188.11 35.9964 187.389 35.1707 186.372 35.1707ZM223.575 35.1707H220.598V38.0371H223.575C224.586 38.0371 225.012 37.292 225.009 36.6039C225.009 35.9419 224.586 35.1707 223.575 35.1707ZM53.0186 0C53.0186 0 56.5823 7.32716 52.5253 15.0422C52.5253 15.0422 55.3138 16.8796 55.8645 18.066L55.9062 18.166L55.4847 19.4721C51.4614 17.4233 47.1042 15.9453 42.5171 15.1409L41.9175 15.0398L42.2625 13.6964C42.2625 13.6964 45.2126 13.201 47.4263 13.6964C47.4263 13.6964 50.597 11.2776 50.7405 3.28081L50.7446 2.95797L53.0186 0Z"
        fill="white" />
</svg>
